assets/icons/qzone-active.svg

<svg width="24" height="24" viewBox="0 0 24 24" xmlns="http://www.w3.org/2000/svg">
  <g id="Styleguide" fill="none" fill-rule="evenodd">
    <g id="Base-Style---Icons" transform="translate(-1120 -1836)">
      <g id="Qzone-Active" transform="translate(1107 1836)">
        <g id="QZone-Icon-Copy" transform="translate(13)">
          <path id="Rectangle-115" d="M0 0H23.862V23.862H0z"/>
          <path d="M21.6023432,9.72045892 C20.1837675,11.044271 18.7661351,12.3699555 17.3447299,13.6909589 C17.1457143,13.87633 17.0315869,14.0766806 17.1089294,14.3519287 C17.1391119,14.5316825 17.1692943,14.7114364 17.1994768,14.8911902 C16.4411425,14.9024248 15.6837514,14.8659123 14.9263603,14.8331447 C14.1302979,14.7975684 13.3342355,14.7507575 12.5381731,14.7020742 C12.0250713,14.671179 11.5119695,14.6271767 10.9998109,14.5869194 C10.9243547,14.5813021 10.846069,14.5738123 10.7904201,14.5045322 C11.0016973,14.3285233 11.2224065,14.1796646 11.4421726,14.0298698 C13.3342355,12.7369529 15.2196961,11.4346738 17.0985542,10.1230326 C17.1287367,10.1014996 17.1806128,10.0893288 17.1711807,10.0415816 C17.1617487,9.99383453 17.1098726,10.0041329 17.0730877,9.99757941 C15.8535277,9.75978007 14.6217061,9.61841117 13.3813956,9.55942945 C12.0146961,9.49483041 10.6489398,9.52104451 9.28412667,9.64275284 C8.21642214,9.73824706 7.15626324,9.88523326 6.10553635,10.0968185 C5.93764641,10.1305223 5.77164288,10.1735884 5.60375295,10.2119733 C5.64714024,10.2335063 5.68675471,10.2335063 5.72542599,10.2335063 C6.78275529,10.2541031 7.83914139,10.2868707 8.89458429,10.3346178 C10.075473,10.387046 11.2563618,10.4479002 12.4315913,10.5855242 C12.8286793,10.6323351 13.2238809,10.6941255 13.6209689,10.7493624 C13.6473785,10.7531072 13.6832202,10.7549797 13.6907658,10.78213 C13.701141,10.81677 13.668129,10.8364306 13.6426625,10.855155 C13.5822976,10.898221 13.5209895,10.9403508 13.4596814,10.9834168 C11.4270813,12.4158302 9.39353808,13.8491797 7.36093804,15.2825293 C7.34773322,15.2909552 7.33452839,15.2993812 7.32226677,15.3087434 C7.27604987,15.3480645 7.28548189,15.376151 7.342074,15.3855132 C7.41564375,15.3967478 7.4901567,15.4014289 7.56466965,15.4098549 C8.80592331,15.5530962 10.0528362,15.6308023 11.3016355,15.6560802 C12.6221181,15.6822943 13.9407143,15.6364196 15.2564809,15.5034767 C16.1628979,15.4107911 17.0617693,15.2797206 17.9521519,15.0821786 C18.0577905,15.0587732 18.0172328,15.027878 18.1228714,15.0007277 C18.22851,14.9726411 18.2973638,14.9482995 18.2973638,14.9370649 L18.2973638,14.9389373 C18.2973638,14.9539168 18.4265824,14.9679601 18.4180936,14.9820033 C18.1247578,15.2179302 17.8540589,15.3555542 17.504131,15.4781988 C17.2343753,15.573693 17.2711601,15.5746292 17.3381275,15.8536222 C17.3400139,15.8611119 17.3645371,15.8676654 17.3683099,15.8742189 C17.3701963,15.900433 17.3767988,15.9285196 17.3815148,15.9547337 C17.4682893,16.4275237 17.5588367,16.9012499 17.6474977,17.3731037 C17.7069194,17.6932903 17.7729435,18.0125406 17.8351949,18.3317908 C17.8606613,18.581761 17.9210262,18.8251777 17.9653567,19.071403 C18.0445857,19.514234 18.1294738,19.9561288 18.2068164,20.3998961 C18.219078,20.4719849 18.2200212,20.5506272 18.2039868,20.6208435 C18.1558835,20.8258752 17.9955392,20.9138797 17.784262,20.8661326 C17.6757937,20.8408547 17.5795872,20.7893627 17.4843238,20.7350621 C15.803538,19.7660766 14.1208659,18.7989636 12.4419665,17.8262332 C12.0948683,17.6258826 11.766634,17.6286912 11.4214221,17.8290418 C9.73497716,18.8045809 8.0457026,19.7754388 6.35737125,20.7481692 C6.28002869,20.7931076 6.19985653,20.8352374 6.11213876,20.8595791 C5.81691657,20.9391576 5.5792297,20.7069756 5.64619703,20.4073859 C5.71976678,20.0740923 5.7782453,19.7379901 5.83483741,19.4009516 C5.87822469,19.1434917 5.93670321,18.8888405 5.98763611,18.633253 C6.00932976,18.5255879 6.02819379,18.4179229 6.04800103,18.3102578 C6.11685477,17.9676021 6.18665171,17.6258826 6.25456224,17.2832268 C6.33850721,16.8591201 6.40264494,16.4312686 6.49130591,16.0071619 C6.57808049,15.5961622 6.65730944,15.1832902 6.72521998,14.7685456 C6.75068643,14.6150059 6.80727854,14.4670835 6.79973293,14.3088627 C6.90159873,14.0897877 6.86198425,13.9530999 6.64033181,13.7490044 C5.1745961,12.4045955 3.70791718,11.0592505 2.24218147,9.71484161 C2.12805404,9.60998521 2.03562026,9.49108554 1.98846016,9.34129068 C1.99694898,9.11285352 2.12050842,8.98271924 2.38554815,8.9490154 C2.79772737,8.8965872 3.21179299,8.85352117 3.62491542,8.80671028 C4.15876768,8.74679234 4.69261994,8.68593818 5.2264722,8.62695645 C5.74900604,8.56891094 6.27153988,8.51180165 6.79407372,8.45375615 C7.29302751,8.39851929 7.7919813,8.33953757 8.29093509,8.28804558 C8.58804368,8.25715039 8.75687682,8.079269 8.87666346,7.82836261 C9.27658105,6.99325628 9.67838505,6.15908616 10.080189,5.32491604 C10.5508468,4.34750459 11.0224477,3.37009314 11.4931055,2.39174547 C11.542152,2.28969772 11.5940281,2.18952241 11.6760866,2.10807145 C11.8345445,1.94985064 12.0231849,1.94891442 12.1844724,2.10339037 C12.2655878,2.18109645 12.3193503,2.27471823 12.364624,2.37489355 C13.2069033,4.24264819 14.0529553,6.10946661 14.8886322,7.98096612 C15.0216237,8.28055584 15.2668562,8.33298404 15.5441575,8.36013436 C16.2392973,8.42847826 16.9344371,8.4986946 17.6295769,8.56703851 C18.3011366,8.63257376 18.9726963,8.69530036 19.6442561,8.76177182 C20.2497917,8.82168977 20.8553273,8.88067149 21.4589765,8.94807918 C21.6476168,8.96961219 21.8221092,9.03140257 21.8730421,9.24954133 C21.8749285,9.45925413 21.7409938,9.59126085 21.6023432,9.72045892" id="QZone-Icon" fill="#F5C13F"/>
        </g>
      </g>
    </g>
  </g>
</svg>

<svg width="24" height="24" viewBox="0 0 24 24" xmlns="http://www.w3.org/2000/svg">
  <g fill="none" fill-rule="evenodd">
    <path d="M0 0h23.862v23.862H0z"/>
    <path d="M21.602 9.72c-1.418 1.324-2.836 2.65-4.257 3.971-.2.185-.313.386-.236.66l.09.54c-.758.011-1.515-.025-2.273-.058-.796-.035-1.592-.082-2.388-.13-.513-.032-1.026-.076-1.538-.116-.076-.006-.154-.013-.21-.082.212-.176.432-.325.652-.475a687.562 687.562 0 0 0 5.657-3.907c.03-.022.082-.034.072-.081-.01-.048-.061-.038-.098-.044a25.625 25.625 0 0 0-3.692-.439 30.083 30.083 0 0 0-7.275.538c-.168.034-.334.077-.502.115a.253.253 0 0 0 .121.022c1.058.02 2.114.053 3.17.1 1.18.053 2.361.114 3.537.252.397.046.792.108 1.189.163.026.004.062.006.07.033.01.035-.023.054-.048.073l-.183.128a24252.936 24252.936 0 0 0-6.138 4.326c-.046.04-.037.067.02.077.074.01.148.015.223.024 1.24.143 2.488.22 3.737.246a32.84 32.84 0 0 0 3.954-.153 23.413 23.413 0 0 0 2.696-.42c.106-.024.065-.055.17-.082.107-.028.175-.053.175-.064v.002c0 .015.13.029.121.043a2.872 2.872 0 0 1-.914.496c-.27.096-.233.097-.166.376.002.007.027.014.03.02.002.026.009.055.014.08.086.474.177.947.265 1.42.06.32.126.639.188.958.026.25.086.493.13.74.08.442.164.884.242 1.328a.58.58 0 0 1-.003.22c-.048.206-.208.294-.42.246a1.126 1.126 0 0 1-.3-.13c-1.68-.97-3.363-1.937-5.042-2.91-.347-.2-.675-.197-1.02.003-1.687.976-3.376 1.946-5.065 2.92a1.054 1.054 0 0 1-.245.11c-.295.08-.533-.152-.466-.452.074-.333.132-.669.189-1.006.043-.258.102-.512.153-.768.021-.107.04-.215.06-.323.069-.342.139-.684.207-1.027.084-.424.148-.852.236-1.276.087-.41.166-.824.234-1.238.026-.154.082-.302.075-.46.102-.22.062-.356-.16-.56L2.242 9.715a.858.858 0 0 1-.254-.374c.009-.228.133-.358.398-.392.412-.052.826-.095 1.239-.142l1.601-.18 1.568-.173c.499-.055.998-.114 1.497-.166.297-.03.466-.209.586-.46.4-.835.801-1.669 1.203-2.503l1.413-2.933a.984.984 0 0 1 .183-.284c.159-.158.347-.16.508-.005a.845.845 0 0 1 .18.272c.843 1.868 1.689 3.734 2.525 5.606.133.3.378.352.655.38.695.067 1.39.138 2.086.206.671.066 1.343.128 2.014.195.606.06 1.211.119 1.815.186.189.022.363.083.414.302.002.21-.132.341-.27.47" fill="#F5C13F"/>
  </g>
</svg>
